Assets/images/home grid/one_on_one.svg

<?xml version="1.0" encoding="UTF-8" standalone="no"?>
<svg
   version="1.1"
   width="80"
   height="80"
   style="clip-rule:evenodd;fill-rule:evenodd;image-rendering:optimizeQuality;shape-rendering:geometricPrecision;text-rendering:geometricPrecision"
   id="svg4"
   xmlns="http://www.w3.org/2000/svg"
   xmlns:svg="http://www.w3.org/2000/svg">
  <defs
     id="defs4" />
  <g
     id="g1"
     transform="matrix(0.32,0,0,0.32,0.15999891,0.16000125)">
    <path
       style="opacity:0.967"
       fill="#000000"
       d="m 65.5,-0.5 c 8.6667,0 17.3333,0 26,0 12.956,3.31698 23.956,9.98364 33,20 9.044,-10.01636 20.044,-16.68302 33,-20 8.333,0 16.667,0 25,0 33.702,10.5716 48.868,33.5716 45.5,69 -1.566,10.1283 -5.566,19.1283 -12,27 -18.5,18.5 -37,37 -55.5,55.5 -1.167,0.167 -2.333,0.333 -3.5,0.5 -18.331,-2.266 -36.497,-5.433 -54.5,-9.5 C 94.9201,141.187 87.4201,141.353 80,142.5 61.9387,125.107 44.6053,107.107 28,88.5 13.3791,58.4143 18.5458,32.2476 43.5,10 50.4918,5.62281 57.8251,2.12281 65.5,-0.5 Z m 57,42 c 6.467,0.3056 8.967,3.6389 7.5,10 -5.415,5.3839 -9.248,4.3839 -11.5,-3 0.077,-3.1654 1.41,-5.4987 4,-7 z m -33,15 c 6.827,-0.6747 9.6603,2.3253 8.5,9 -2.5311,3.7016 -5.6978,4.5349 -9.5,2.5 -4.1241,-4.3051 -3.7908,-8.1385 1,-11.5 z m 64,0 c 9.468,-0.2149 11.801,3.6185 7,11.5 -5.099,1.9571 -8.766,0.2904 -11,-5 0.734,-2.5607 2.067,-4.7274 4,-6.5 z m -34,9 c 6.365,-0.5987 12.365,0.5679 18,3.5 8.667,6.3268 15.5,14.1601 20.5,23.5 0.75,13.586 -5.584,21.586 -19,24 -5.404,-1.118 -10.237,-3.452 -14.5,-7 -10.686,9.2 -20.853,8.533 -30.5,-2 -4.6667,-7.333 -4.6667,-14.6667 0,-22 4.8333,-4.8333 9.667,-9.6667 14.5,-14.5 3.49,-2.412 7.157,-4.2453 11,-5.5 z"
       id="path1" />
  </g>
  <g
     id="g2"
     transform="matrix(0.32,0,0,0.32,0.15999891,0.16000125)">
    <path
       style="opacity:0.843"
       fill="#000000"
       d="m 122.5,78.5 c 2.716,0.1785 5.383,0.6785 8,1.5 4.467,3.4651 8.633,7.2984 12.5,11.5 2.159,3.6916 1.993,7.1916 -0.5,10.5 -2,0.667 -4,0.667 -6,0 -2.963,-1.961 -5.629,-4.294 -8,-7 -2.195,-1.373 -4.529,-1.7063 -7,-1 -2.703,3.038 -5.703,5.7046 -9,8 -7.626,0.922 -10.126,-2.2445 -7.5,-9.5 4.92,-6.1164 10.753,-10.7831 17.5,-14 z"
       id="path2" />
  </g>
  <g
     id="g3"
     transform="matrix(0.32,0,0,0.32,0.15999891,0.16000125)">
    <path
       style="opacity:0.941"
       fill="#000000"
       d="m 249.5,152.5 c 0,3.667 0,7.333 0,11 -23.208,17.623 -46.874,34.789 -71,51.5 -9.049,5.128 -18.716,8.461 -29,10 -25.661,1.068 -51.3277,1.902 -77,2.5 -5.7812,-19.844 -12.4478,-39.344 -20,-58.5 7.8998,-8.115 17.5665,-12.782 29,-14 6.6667,-0.667 13.3333,-0.667 20,0 12.729,2.349 25.396,5.015 38,8 9.38,0.805 18.713,1.805 28,3 7.496,5.525 7.829,11.525 1,18 -16.267,1.289 -32.6,1.956 -49,2 -5.333,4 -5.333,8 0,12 16.333,0.667 32.667,0.667 49,0 8.87,-3.37 14.87,-9.537 18,-18.5 15.99,-11.33 32.323,-22.163 49,-32.5 5.91,-1.208 10.577,0.625 14,5.5 z"
       id="path3" />
  </g>
  <g
     id="g4"
     transform="matrix(0.32,0,0,0.32,0.15999891,0.16000125)">
    <path
       style="opacity:0.962"
       fill="#000000"
       d="m 12.5,249.5 c -3.33333,0 -6.66667,0 -10,0 -0.66667,-1.333 -1.666667,-2.333 -3,-3 0,-19.333 0,-38.667 0,-58 1.248938,-1.636 2.9156,-2.803 5,-3.5 9.0771,-3.137 18.0771,-6.47 27,-10 5.1253,-1.569 8.9586,-0.069 11.5,4.5 6.0308,17.092 11.8641,34.259 17.5,51.5 -0.4814,3.814 -2.4814,6.48 -6,8 -14.2009,3.217 -28.2009,6.717 -42,10.5 z"
       id="path4" />
  </g>
</svg>

<?xml version="1.0" encoding="UTF-8"?>
<!DOCTYPE svg PUBLIC "-//W3C//DTD SVG 1.1//EN" "http://www.w3.org/Graphics/SVG/1.1/DTD/svg11.dtd">
<svg xmlns="http://www.w3.org/2000/svg" version="1.1" width="250px" height="250px" style="shape-rendering:geometricPrecision; text-rendering:geometricPrecision; image-rendering:optimizeQuality; fill-rule:evenodd; clip-rule:evenodd" xmlns:xlink="http://www.w3.org/1999/xlink">
<g><path style="opacity:0.967" fill="#000000" d="M 65.5,-0.5 C 74.1667,-0.5 82.8333,-0.5 91.5,-0.5C 104.456,2.81698 115.456,9.48364 124.5,19.5C 133.544,9.48364 144.544,2.81698 157.5,-0.5C 165.833,-0.5 174.167,-0.5 182.5,-0.5C 216.202,10.0716 231.368,33.0716 228,68.5C 226.434,78.6283 222.434,87.6283 216,95.5C 197.5,114 179,132.5 160.5,151C 159.333,151.167 158.167,151.333 157,151.5C 138.669,149.234 120.503,146.067 102.5,142C 94.9201,141.187 87.4201,141.353 80,142.5C 61.9387,125.107 44.6053,107.107 28,88.5C 13.3791,58.4143 18.5458,32.2476 43.5,10C 50.4918,5.62281 57.8251,2.12281 65.5,-0.5 Z M 122.5,41.5 C 128.967,41.8056 131.467,45.1389 130,51.5C 124.585,56.8839 120.752,55.8839 118.5,48.5C 118.577,45.3346 119.91,43.0013 122.5,41.5 Z M 89.5,56.5 C 96.327,55.8253 99.1603,58.8253 98,65.5C 95.4689,69.2016 92.3022,70.0349 88.5,68C 84.3759,63.6949 84.7092,59.8615 89.5,56.5 Z M 153.5,56.5 C 162.968,56.2851 165.301,60.1185 160.5,68C 155.401,69.9571 151.734,68.2904 149.5,63C 150.234,60.4393 151.567,58.2726 153.5,56.5 Z M 119.5,65.5 C 125.865,64.9013 131.865,66.0679 137.5,69C 146.167,75.3268 153,83.1601 158,92.5C 158.75,106.086 152.416,114.086 139,116.5C 133.596,115.382 128.763,113.048 124.5,109.5C 113.814,118.7 103.647,118.033 94,107.5C 89.3333,100.167 89.3333,92.8333 94,85.5C 98.8333,80.6667 103.667,75.8333 108.5,71C 111.99,68.588 115.657,66.7547 119.5,65.5 Z"/></g>
<g><path style="opacity:0.843" fill="#000000" d="M 122.5,78.5 C 125.216,78.6785 127.883,79.1785 130.5,80C 134.967,83.4651 139.133,87.2984 143,91.5C 145.159,95.1916 144.993,98.6916 142.5,102C 140.5,102.667 138.5,102.667 136.5,102C 133.537,100.039 130.871,97.706 128.5,95C 126.305,93.627 123.971,93.2937 121.5,94C 118.797,97.038 115.797,99.7046 112.5,102C 104.874,102.922 102.374,99.7555 105,92.5C 109.92,86.3836 115.753,81.7169 122.5,78.5 Z"/></g>
<g><path style="opacity:0.941" fill="#000000" d="M 249.5,152.5 C 249.5,156.167 249.5,159.833 249.5,163.5C 226.292,181.123 202.626,198.289 178.5,215C 169.451,220.128 159.784,223.461 149.5,225C 123.839,226.068 98.1723,226.902 72.5,227.5C 66.7188,207.656 60.0522,188.156 52.5,169C 60.3998,160.885 70.0665,156.218 81.5,155C 88.1667,154.333 94.8333,154.333 101.5,155C 114.229,157.349 126.896,160.015 139.5,163C 148.88,163.805 158.213,164.805 167.5,166C 174.996,171.525 175.329,177.525 168.5,184C 152.233,185.289 135.9,185.956 119.5,186C 114.167,190 114.167,194 119.5,198C 135.833,198.667 152.167,198.667 168.5,198C 177.37,194.63 183.37,188.463 186.5,179.5C 202.49,168.17 218.823,157.337 235.5,147C 241.41,145.792 246.077,147.625 249.5,152.5 Z"/></g>
<g><path style="opacity:0.962" fill="#000000" d="M 12.5,249.5 C 9.16667,249.5 5.83333,249.5 2.5,249.5C 1.83333,248.167 0.833333,247.167 -0.5,246.5C -0.5,227.167 -0.5,207.833 -0.5,188.5C 0.748938,186.864 2.4156,185.697 4.5,185C 13.5771,181.863 22.5771,178.53 31.5,175C 36.6253,173.431 40.4586,174.931 43,179.5C 49.0308,196.592 54.8641,213.759 60.5,231C 60.0186,234.814 58.0186,237.48 54.5,239C 40.2991,242.217 26.2991,245.717 12.5,249.5 Z"/></g>
</svg>
